icons/social-figma-negative.svg

<svg viewBox="0 0 24 24"><path fill="#0a090b" fill-rule="evenodd" d="M8.6 0a4.6 4.6 0 0 0-2.8 8.3 5 5 0 0 0-1.8 3.7 5 5 0 0 0 1.8 3.7 4.6 4.6 0 0 0 2.8 8.3 4.6 4.6 0 0 0 4.7-4.6v-3.7a4.6 4.6 0 0 0 5.5-7.4 4.6 4.6 0 0 0-2.8-8.3zm-2.7 4.6a2.7 2.7 0 0 1 2.7-2.7h2.8v5.5h-2.8a2.7 2.7 0 0 1-2.7-2.8Zm7.4 2.8v-5.5h2.7a2.7 2.7 0 0 1 2.7 2.7 2.7 2.7 0 0 1-2.7 2.8zm-7.4 4.6a2.7 2.7 0 0 1 2.7-2.7h2.8v5.4h-2.8a2.7 2.7 0 0 1-2.7-2.7Zm10.1-2.7za2.7 2.7 0 0 1 2.7 2.7 2.7 2.7 0 0 1-2.7 2.7 2.7 2.7 0 0 1-2.7-2.7v0a2.7 2.7 0 0 1 2.7-2.7zm-10.1 10a2.7 2.7 0 0 1 2.7-2.7h2.8v2.8a2.7 2.7 0 0 1-2.8 2.7 2.7 2.7 0 0 1-2.7-2.7Z" clip-rule="evenodd"/></svg>

<svg viewBox="0 0 24 24"><path fill="#0a090b" fill-rule="evenodd" d="M8.6 0a4.6 4.6 0 0 0-2.8 8.3A5 5 0 0 0 4 12a5 5 0 0 0 1.8 3.7A4.6 4.6 0 0 0 8.6 24a4.6 4.6 0 0 0 4.7-4.6v-3.7a4.6 4.6 0 0 0 5.5-7.4A4.6 4.6 0 0 0 16 0zM6 4.6A3 3 0 0 1 8.6 2h2.8v5.5H8.6A2.7 2.7 0 0 1 6 4.6m7.4 2.8V1.9H16a2.7 2.7 0 0 1 2.7 2.7A2.7 2.7 0 0 1 16 7.4zM5.9 12a2.7 2.7 0 0 1 2.7-2.7h2.8v5.4H8.6A3 3 0 0 1 6 12m10-2.7a2.7 2.7 0 0 1 2.7 2.7 2.7 2.7 0 0 1-2.7 2.7 2.7 2.7 0 0 1-2.7-2.7A2.7 2.7 0 0 1 16 9.3m-10.1 10a2.7 2.7 0 0 1 2.7-2.7h2.8v2.8A2.7 2.7 0 0 1 8.6 22 3 3 0 0 1 6 19.4" clip-rule="evenodd"/></svg>
